svgs/duotone/diagram-lean-canvas.svg

<svg xmlns="http://www.w3.org/2000/svg" viewBox="0 0 640 512"><!--! Font Awesome Pro 6.4.0 by @fontawesome - https://fontawesome.com License - https://fontawesome.com/license (Commercial License) Copyright 2023 Fonticons, Inc. --><defs><style>.fa-secondary{opacity:.4}</style></defs><path class="fa-primary" d="M512 96V304h64V96H512zm-48 0H400v80h64V96zM352 96H288V304h64V96zM240 96H176v80h64V96zM128 96H64V304h64V96zM64 352v64H296V352H64zm280 64H576V352H344v64zM0 96C0 60.7 28.7 32 64 32H576c35.3 0 64 28.7 64 64V416c0 35.3-28.7 64-64 64H64c-35.3 0-64-28.7-64-64V96zM240 304V224H176v80h64zm224-80H400v80h64V224z"/><path class="fa-secondary" d="M128 96H64V304h64V96zm448 0H512V304h64V96z"/></svg>

<svg xmlns="http://www.w3.org/2000/svg" viewBox="0 0 640 512"><!--! Font Awesome Pro 6.3.0 by @fontawesome - https://fontawesome.com License - https://fontawesome.com/license (Commercial License) Copyright 2023 Fonticons, Inc. --><defs><style>.fa-secondary{opacity:.4}</style></defs><path class="fa-primary" d="M0 96C0 60.65 28.65 32 64 32H576C611.3 32 640 60.65 640 96V416C640 451.3 611.3 480 576 480H64C28.65 480 0 451.3 0 416V96zM512 304H576V96H512V304zM464 96H400V176H464V96zM352 96H288V304H352V96zM240 96H176V176H240V96zM128 96H64V304H128V96zM64 352V416H296V352H64zM344 416H576V352H344V416zM240 224H176V304H240V224zM400 224V304H464V224H400z"/><path class="fa-secondary" d="M128 304H64V96H128V304zM576 304H512V96H576V304z"/></svg>
